X:1
T: The Bard
N:
C:
S:
A:
O:
R:
M:4/4
K:Em
I:speed 200
%W: A1
% voice 1 (1 lines, 24 notes)
K:Em
M:4/4
L:1/16
E4 E2 F2 G4 A2 B2 |c2 B2 A2 G2 F3 E D4 |e4 e2 B2 c4 B2 A2 |B2 A2 G2 A2 B8 |
%W:
% voice 1 (1 lines, 29 notes)
E2 F2 G2 A2 B2 A2 B2 G2 |A2 G2 A2 F2 G2 F2 G2 E2 |d2 G2 B2 d2 g2 B2 d2 g2 |b2 a2 g2 f2 g8 |
%W: A2
% voice 1 (1 lines, 24 notes)
E4 E2 F2 G4 A2 B2 |c2 B2 A2 G2 F3 E D4 |e4 e2 B2 c4 B2 A2 |B2 A2 G2 A2 B8 |
%W:
% voice 1 (1 lines, 29 notes)
E2 F2 G2 A2 B2 A2 B2 G2 |A2 G2 A2 F2 G2 F2 G2 E2 |d2 G2 B2 d2 g2 B2 d2 g2 |b2 a2 g2 f2 g8 |
%W: B1
% voice 1 (1 lines, 28 notes)
g4 f g a2 g2 d2 B2 d2 |g2 d2 g2 a2 b2 c'2 b2 a2 |g4 f2 e2 d2 e2 d2 B2 |A2 G2 A2 B2 c8 |
%W:
% voice 1 (1 lines, 25 notes)
B4 e2 B2 c2 B2 A2 c2 |B2 A2 G2 B2 A4 G2 F2 |G2 F2 E2 G2 F2 E2 ^D2 F2 |B4 B4 E8 |
%W: B2
% voice 1 (1 lines, 28 notes)
g4 f g a2 g2 d2 B2 d2 |g2 d2 g2 a2 b2 c'2 b2 a2 |g4 f2 e2 d2 e2 d2 B2 |A2 G2 A2 B2 c8 |
%W:
% voice 1 (1 lines, 25 notes)
B4 e2 B2 c2 B2 A2 c2 |B2 A2 G2 B2 A4 G2 F2 |G2 F2 E2 G2 F2 E2 ^D2 F2 |B4 B4 E8 ||
